public/assets/images/utils/instagram-logo.svg

<svg width="24" height="24" viewBox="0 0 24 24" fill="none" xmlns="http://www.w3.org/2000/svg">
<rect width="24" height="24" rx="12" fill="#DBECFF"/>
<path fill-rule="evenodd" clip-rule="evenodd" d="M20.6542 20.6544C21.178 20.1307 21.5865 19.5032 21.8537 18.8123C22.1108 18.1509 22.2867 17.3949 22.3372 16.2878C22.3878 15.1786 22.3998 14.8244 22.3998 12C22.3998 9.17554 22.3878 8.82122 22.3372 7.7121C22.2867 6.60511 22.1108 5.84914 21.8537 5.18762C21.5926 4.49369 21.1833 3.86505 20.6542 3.34558C20.1347 2.81642 19.506 2.40697 18.8121 2.14578C18.1505 1.88887 17.3945 1.7131 16.2875 1.66276C15.1784 1.61194 14.8242 1.59998 11.9997 1.59998C9.17523 1.59998 8.82094 1.61194 7.71183 1.66257C6.60483 1.7131 5.84886 1.88887 5.18734 2.14598C4.4934 2.40713 3.86478 2.81649 3.34529 3.34554C2.81612 3.86498 2.40665 4.49361 2.14542 5.18758C1.88851 5.84914 1.71273 6.60511 1.66239 7.7121C1.61158 8.82122 1.59961 9.17551 1.59961 12C1.59961 14.8245 1.61158 15.1788 1.66239 16.2878C1.71294 17.3949 1.88871 18.1509 2.14582 18.8123C2.40697 19.5064 2.81633 20.1349 3.34539 20.6544C3.86486 21.1835 4.49348 21.5928 5.18742 21.8539C5.84899 22.111 6.60495 22.2869 7.71191 22.3374C8.82118 22.388 9.17534 22.4 11.9998 22.4C14.8243 22.4 15.1786 22.388 16.2876 22.3374C17.3947 22.2869 18.1507 22.111 18.8121 21.8539C19.503 21.5867 20.1305 21.1782 20.6542 20.6544ZM3.19879 10.7759C3.19919 11.1124 3.19969 11.5127 3.19969 12C3.19969 12.4874 3.19919 12.8877 3.19879 13.2241C3.19719 14.5375 3.19679 14.8777 3.23102 15.6248C3.27361 16.5614 3.32478 17.2497 3.48102 17.7685C3.63123 18.2672 3.79969 18.7747 4.34969 19.3873C4.89969 19.9998 5.43019 20.2773 6.10593 20.4811C6.78167 20.6848 7.63097 20.7286 8.36844 20.7622C9.20492 20.8005 9.53644 20.8003 11.291 20.7998H11.9997C12.4685 20.7998 12.8567 20.8001 13.1851 20.8006C14.5307 20.8021 14.8704 20.8024 15.6248 20.7678C16.5615 20.7253 17.2499 20.6741 17.7686 20.5179C18.2673 20.3677 18.7748 20.1992 19.3873 19.6491C19.9998 19.0992 20.2772 18.5686 20.4811 17.8929C20.6849 17.2171 20.7287 16.3678 20.7623 15.6304C20.8004 14.795 20.8003 14.4644 20.7999 12.716L20.7998 12.0006V11.2919C20.8003 9.53733 20.8004 9.20582 20.7622 8.36934C20.7286 7.63186 20.6847 6.78257 20.4811 6.10682C20.2772 5.4311 19.9998 4.90058 19.3873 4.35058C18.7748 3.80058 18.2671 3.63212 17.7686 3.48191C17.2497 3.32567 16.5614 3.2745 15.6247 3.23191C14.8703 3.19735 14.5307 3.19772 13.1851 3.19919C12.8567 3.19956 12.4685 3.19999 11.9997 3.19999L11.2909 3.19986C9.53643 3.1994 9.20491 3.1993 8.36844 3.23746C7.63097 3.27111 6.78167 3.3149 6.10593 3.51871C5.43019 3.72252 4.89969 3.99996 4.34969 4.61247C3.79969 5.22497 3.63123 5.73255 3.48102 6.23122C3.32478 6.74996 3.27361 7.43828 3.23102 8.37497C3.19679 9.12207 3.19719 9.46239 3.19879 10.7759ZM11.9995 8.40022C10.0115 8.40022 8.3998 10.0119 8.3998 12C8.3998 13.988 10.0115 15.5997 11.9995 15.5997C13.9876 15.5997 15.5993 13.988 15.5993 12C15.5993 10.0119 13.9876 8.40022 11.9995 8.40022ZM6.7998 12C6.7998 9.12822 9.1278 6.80022 11.9995 6.80022C14.8713 6.80022 17.1993 9.12822 17.1993 12C17.1993 14.8717 14.8713 17.1997 11.9995 17.1997C9.1278 17.1997 6.7998 14.8717 6.7998 12ZM17.5511 7.64846C18.2139 7.64846 18.7511 7.11121 18.7511 6.44846C18.7511 5.78572 18.2139 5.24846 17.5511 5.24846C16.8884 5.24846 16.3511 5.78572 16.3511 6.44846C16.3511 7.11121 16.8884 7.64846 17.5511 7.64846Z" fill="#09355D"/>
</svg>

<svg xmlns="http://www.w3.org/2000/svg" fill="none" viewBox="0 0 24 24"><rect width="24" height="24" fill="#dbecff" rx="12"/><path fill="#09355d" fill-rule="evenodd" d="M20.654 20.654a5.3 5.3 0 0 0 1.2-1.842c.257-.661.433-1.417.483-2.524.05-1.11.063-1.464.063-4.288s-.012-3.179-.063-4.288c-.05-1.107-.226-1.863-.483-2.524a5.1 5.1 0 0 0-1.2-1.842 5.1 5.1 0 0 0-1.842-1.2c-.662-.257-1.418-.433-2.524-.483C15.178 1.612 14.824 1.6 12 1.6s-3.18.012-4.288.063c-1.107.05-1.863.226-2.525.483a5.1 5.1 0 0 0-1.842 1.2 5.1 5.1 0 0 0-1.2 1.842c-.256.661-.432 1.417-.483 2.524C1.612 8.822 1.6 9.176 1.6 12s.012 3.179.062 4.288c.05 1.107.227 1.863.484 2.524a5.1 5.1 0 0 0 1.2 1.842c.519.53 1.147.939 1.841 1.2.662.257 1.418.433 2.525.483 1.11.051 1.463.063 4.288.063 2.824 0 3.179-.012 4.288-.063 1.107-.05 1.863-.226 2.524-.483a5.3 5.3 0 0 0 1.842-1.2M3.2 10.776v2.448c-.002 1.313-.002 1.654.032 2.4.043.937.094 1.626.25 2.144.15.5.319 1.007.869 1.62.55.612 1.08.89 1.756 1.093.676.204 1.525.248 2.262.281.837.038 1.168.038 2.923.038h1.894c1.346.002 1.685.002 2.44-.032.936-.043 1.625-.094 2.144-.25.498-.15 1.006-.319 1.618-.869s.89-1.08 1.094-1.756.248-1.525.281-2.263c.038-.835.038-1.166.038-2.914v-1.425c0-1.754 0-2.085-.038-2.922-.033-.737-.077-1.586-.28-2.262C20.276 5.43 20 4.9 19.386 4.35c-.612-.55-1.12-.719-1.618-.87-.52-.155-1.208-.206-2.144-.25-.755-.034-1.094-.033-2.44-.032L12 3.2h-.71c-1.754 0-2.085 0-2.922.037-.737.034-1.586.078-2.262.282S4.9 4 4.35 4.612c-.55.613-.719 1.12-.869 1.62-.156.518-.207 1.206-.25 2.143-.034.747-.034 1.087-.032 2.4m8.8-2.376a3.6 3.6 0 1 0 0 7.2 3.6 3.6 0 0 0 0-7.2M6.8 12a5.2 5.2 0 1 1 10.4 0 5.2 5.2 0 0 1-10.4 0m10.752-4.352a1.2 1.2 0 1 0 0-2.4 1.2 1.2 0 0 0 0 2.4" clip-rule="evenodd"/></svg>
